X: 467
T: Bûse Ümmidiyle Ey Meh
C: Ahmet Avni Konuk
O: Turkey
F: http://compmusic.upf.edu/node/140
N: nevabuselik--kupe--agiraksak--buse--ahmet_avni_konuk
N: makam= nevabuselik
N: form= kupe
N: usul= agiraksak = 9/4
M: 9/4
L: 1/16
K: C _1/4B ^f  
Q: 1/4=60
%%MIDI tuningsystem comma53
d8 z2c2 _2/4B2c2 d4 {e}d2c2 e3d c2d2 c2B2  | \
w:  Ah  bû *  se  üm *  *  *  mi  | 
c4 {d}c2_2/4B2 d4 c2B2 B2A2 B2A2 A4 c4 B2A2  | 
w:  diy *  *  *  le  *  *  ey  *  *  *  meh   | 
A8 z2f4f2 f4 e2f2 a2g2 f2e2 d4  | \
w:  *  kal ma dı  *  *  dil  | 
e2^2/4f2 e2f2 g2g2 =f2e2 e2d2 d2c2 d8 z4  | 
w:  de  *  *  *  *  *  ka *  rar    | 
a8 z2g4a2 a8 a2g2 f2^3/4e2 g4  | g3f e2f2 e4 f4 g4 a2g2 ^1/4f3e d2e2 d2c2  | 
w:  Ah  Bû se lik  ol  |  du  *  *  *  *  Ne vâ *  *  yı   | 
d8 z2c4d2 e2=f2 e2d2 e3d c2d2 c4  | \
w:  *  mürg_ i  dil  *  *  *  leyl_ ü   | 
c3=B A2B2 c2d2 c2B2 B2A2 A2^G2 A8 z4  | 
w:  *  *  *  *  *  *  ne *  hâr    | 
|


